X:1
T:An den Vetter
T:An den Vetter
T:Franz Joseph Haydn
T:Copyright © 2002 The Choral Public Domain Library
T:Copyright © 2002 The Choral Public Domain Library
T:Copyright © 2002 The Choral Public Domain Library
T:Copyright © 2002 The Choral Public Domain Library
T:Copyright © 2002 The Choral Public Domain Library
T:Copyright © 2002 The Choral Public Domain Library
T:Copyright © 2002 The Choral Public Domain Library
T:Copyright © 2002 The Choral Public Domain Library
T:Copyright © 2002 The Choral Public Domain Library
T:Copyright © 2002 The Choral Public Domain Library
T:Copyright © 2002 The Choral Public Domain Library
T:Copyright © 2002 The Choral Public Domain Library
T:Copyright © 2002 The Choral Public Domain Library
T:Copyright © 2002 The Choral Public Domain Library
C:Franz Joseph Haydn
Z:Copyright © 2002 The Choral Public Domain Library
%%score [ 1 2 3 ] { ( 4 6 ) | ( 5 7 ) }
L:1/8
Q:1/4=120
M:2/4
K:G
V:1 treble nm="Soprano"
V:2 treble nm="Alto"
V:3 treble-8 nm="Tenore"
V:4 treble nm="Pianoforte"
V:6 treble 
V:5 bass 
V:7 bass 
V:1
"^Allegro"!p! G2 A>F | G2 z2 | B2 c>A | B2 z2 |!f! g2!>(! f>e!>)! | d!p!e dc | Bc BA | G2 z d | %8
w: Ja, Vet- ter,|ja!|Ja, Vet- ter,|ja,|ja, Vet- ter,|ja; ich fall' euch|bei, ich fall' euch|bei, daß|
 cB AG | FG AB | cd eF | GA B2 | z4 | d2 ^cd | ed ^cB | AB A2- | AA AA | AB AB | AB AB | AB AB | %20
w: Lieb' und Tor- heit|ei- ner- lei, und|ich ein Tor not-|wen- dig sei;||ja, Vet- ter,|ja, ich fall' euch|bei; ja, ja,|_ ich fall' euch|bei, daß Lieb' und|Tor- heit ei- ner-|lei, und ich ein|
 AB A B2 | A2!f! dd | ee d^c | d2!p! ^d"^cresc."d | ee ^cc | de d^c | d!f!g fe | d2 z!p! D | %28
w: Tor not- wen- dig|sei; Vet- ter,|ja, ich fall' euch|bei, Vet- ter,|Vet- ter, Vet- ter,|ja, ich fall' euch|bei, ich fall' euch|bei; ich|
 EF GA | B=c de | dc BA | GA B2 | z2 z d | B2 z"^cresc." d | e2 z2 |!f! e2!p! ee | ^d- e2 =d | %37
w: sei nun a- ber,|was ich sei, ist|Lieb' und Tor- heit|ei- ner- lei.|So|wißt, so|wißt!|mir ist sehr|wohl _ da-|
 c2 z c | ^c- d2 =c | B2 z d | G2 z G | c2 z2 |!f! c4 | B2 (3ecA | (G2{/B} A>)G | G2 z!p! e | %46
w: bei, sehr|wohl _ da-|bei, so|wißt, so|wißt!|Mir|ist sehr _ _|wohl _ da-|bei, ich|
 de de | de d c/B/ | AB AB | AB A z | z2 z G |"^cresc." G2- FA | A2- GB | B2- A!f!c | %54
w: sei nun a- ber,|was ich sei, ist _|Lieb' und Tor- heit|ei- ner- lei;|so|wißt, _ mir|ist _ sehr|wohl _ da-|
 !fermata!c2- !fermata!B2 |!f! e2!p! ee | d- e2 =d | c2 z c | c- d2 =c | B2 z d | G2 z G | c2 z2 | %62
w: bei; _|mir ist sehr|wohl _ da-|bei, sehr|wohl _ da-|bei, so|wißt, so|wißt!|
 c4 | B2 (3ecA | (G2{/B} A>)G | G2 z2 | G2 A>F | G2 z2 | B2 c>A | B2 z2 |!f! g2!>(! f>e!>)! | %71
w: mir|ist sehr _ _|wohl _ da-|bei,|ja, Vet- ter,|ja,|ja, Vet- ter,|ja,|ja, Vet- ter,|
 d!p!e dc | Bd cB | A2 z B | cB Ac | dc Bd | e"^cresc."d ce | =fe d2 |!f! e2 ee | e2 z!p! e | %80
w: ja, ich fall' euch|bei, ich fall' euch|bei, daß|Lieb' und Tor- heit|ei- ner- lei, und|ich ein Tor not-|wen- dig sei;|ja, Vet- ter,|ja, ja,|
 dd dd | d2 z!f! d | c^c cc | d2 z!p! D | EF GA | Bc de | dc BA | GA B2 | z2 z d | %89
w: ja, ja, ja, ja,|ja; ja,|Vet- ter, Vet- ter,|ja; ich|sei nun a- ber,|was ich sei, ist|Lieb' und Tor- heit|ei- ner- lei;|so|
 B2 z"^cresc." d | e2 z2 |!f! e2!p! ee | d- e2 =d | c2 z c | ^c- d2 =c | B2 z d | G2 z G | c2 z2 | %98
w: wißt, so|wißt!|mir ist sehr|wohl _ da-|bei, sehr|wohl _ da-|bei; so|wißt, so|wißt!|
!f! c4 | B2 (3ecA | (G2{/B} A>)G | G2 z"^cresc." G | F2 z c | B2 z!f! e | %104
w: mir|ist sehr _ _|wohl _ da-|bei; so|wißt, mir|ist sehr|
 !fermata!e2-[Q:1/4=40]"^Adagio" !fermata!dg | g2- fe | d4- | d3/2(3e/4d/4c/4 dd | e4- | %109
w: wohl, _ sehr|wohl _ da-|bei;|_ _ _ _ _ _||
 !fermata!e4 |"^a tempo"!f!!>(! c4!>)! | (3Bdg (3ecA | (G2{/B} A>)G | G2 z!p! B | A2 z c | %115
w: |mir|ist _ _ sehr _ _|wohl _ da-|bei, so|wißt, mir|
 B2 z!f! e | d3 e/f/ | g2 z2 |] %118
w: ist sehr|wohl da _|bei!|
V:2
 z4 | z4 | G2 A>F | G2 z2 |!f! B2!>(! c>c!>)! | B!p!c BA | GG FE | D2 z2 | z4 | z4 | z2 z e | %11
w: ||Ja, Vet- ter,|ja,|ja, Vet- ter,|ja; ich fall' euch|bei, ich fall' euch|bei,|||daß|
 dc BA | GA Bc | BA GF | EF G2 | G2 GE | GG FE | FG FG | FG FG | FG FG | FG FG x | F2!f! FF | %22
w: Lieb' und Tor- heit|ei- ner- lei, und|ich ein Tor not-|wen- dig sei;|ja, vet- ter,|ja, ich fall' euch|bei, daß Lieb' und|Tor- heit ei- ner-|lei, und ich ein|Tor not- wen- dig|sei; Vet- ter,|
 GG FE | F2!p! F"^cresc."F | GG EE | FG FE | F!f!e d^c | d2 z2 | z2 z!p! =c | BA GG | FG FE | %31
w: ja, ich fall' euch|bei, Vet- ter,|Vet- ter, Vet- ter,|ja, ich fall' euch|bei, ich fall' euch|bei;|ich|sei num a- ber,|was ich sei, ist|
 DF GF | GA B z | z"^cresc." D G2 | z G c2 | z4 | G2 GG | ^G- A2 =G | F2 z F | F- G2 =F | E2 z E | %41
w: Lieb' und Tor- heit|ei- ner- lei.|So wißt,|so wißt!||mir ist sehr|wohl _ da-|bei, sehr|wohl _ da-|bei, so|
 C2 z2 |!f! D4 | D2 c2 | B2 FG | G4- |!>(! G4-!>)!!p! | G3 A/G/ | FG FG | FG F z | z2 z D | %51
w: wißt!|Mir|ist sehr|wohl da _|bei,|_|* ist _|Lieb' und Tor- heit|ei- ner- lei;|so|
"^cresc." C3 E | D3 G | G2- F!f!A | !fermata!A2- !fermata!G2 | z4 | G2 GG | G- A2 =G | F3 F | %59
w: wißt, mir|ist sehr|wohl _ da-|bei; _||mir ist sehr|wohl _ da-|bei, sehr|
 F- G2 =F | E2 z E | E2 z2 | D4 | D2 c2 | B2 F>G | G2 z2 | z4 | z4 | G2 A>F | G2 z2 | %70
w: wohl _ da-|bei, so|wißt!|mir|ist sehr|wohl da- *|bei,|||ja, Vet- ter,|ja,|
!f! B2!>(! c>c!>)! | B!p!c BA | GB AG | F2 z G | AG FA | BA GB | c"^cresc."B Ac | dc B2 | %78
w: ja, Vet- ter,|ja, ich fall' euch|bei, ich fall' euch|bei, daß|Lieb' und Tor- heit|ei- ner- lei, und|ich ein Tor not-|wen- dig sei;|
!f! c2 cc | c2 z!p! c | cc cc | B2 z!f! B/A/ | GF GA | F2 z2 | z2 z!p! c | BA GG | FG FE | DF GF | %88
w: ja, Vet- ter,|ja, ja,|ja, ja, ja, ja,|ja; ja, _|Vet- ter, Vet- ter,|ja;|ich|sei nun a- ber,|was ich sei, ist|Lieb' und Tor- heit|
 GA B z | z"^cresc." D G2 | z G c2 | z4 |!f! G2!p! GG | G- A2 =G | F2 z F | F- G2 =F | E2 z E | %97
w: ei- ner- lei;|so wißt,|so wißt!||mir ist sehr|wohl _ da-|bei, sehr|wohl _ da-|bei; so|
 E2 z2 |!f! D4 | D2 c2 | B2 FG | G2 z2 | z"^cresc." ^C D2 | z F G!f!c | !fermata!c2- !fermata!Bd | %105
w: wißt!|mir|ist sehr|wohl da- *|bei;|so wißt,|mir ist sehr|wohl, _ sehr|
 c3 B | A3/2(3B/4A/4G/4 AB | c4- | c4- | !fermata!c4 |!f!!>(! F4!>)! | G3 c | B2 F>G | G2 z!p! G | %114
w: wohl da-|bei; _ _ _ _ _|_|||mir|ist sehr|wohl da- *|bei, so|
 F2 z A | G2 z!f! G/A/ | B3 A | G2 z2 |] %118
w: wißt, mir|ist sehr _|wohl da-|bei!|
V:3
 z4 | z4 | z4 | z4 |!f! G2!>(! A>F!>)! | G2 z2 | z e dc | B2 z2 | z d cB | AG FG | AB cd | eF GA | %12
w: ||||Ja, Vet- ter,|ja!|ich fall' euch|bei,|daß Lieb' und|Tor- heit ei- ner-|lei, und ich ein|Tor not- wen- dig|
 B2 z2 | g2 ed | ^c3 d | ^cc cc | ^cA Bc | d^c dc | d^c dc | d^c dc | d^c dc x | d2!f! BB | GE AA | %23
w: sei;|ja, Vet- ter,|ja, ja,|ja, ich fall' euch|bei, ich fall' euch|bei, daß Lieb' und|Tor- heit ei- ner-|lei, und ich ein|Tor not- wen- dig|sei; Vet- ter,|ja, ich fall' euch|
 d2!p! B"^cresc."B | EE AA | dG AA | d!f!G AA | d2 z2 | z!p! D EF | GA Bc | de dc | BA GA | %32
w: bei, Vet- ter,|Vet- ter, Vet- ter,|ja, ich fall' euch|bei, ich fall' euch|bei;|ich sei nun|a- ber, was ich|sei, ist Lieb' und|Tor- heit ei- ner-|
 B2 z F | G2 z"^cresc." B | c2 z2 |!f! c2!p! cc | B- c2 B | A2 z A | ^A- B2 =A | G2 z B | c2 z c | %41
w: lei. So|wißt, so|wißt!|mir ist sehr|wohl _ da-|bei, sehr|wohl _ da-|bei, so|wißt, so|
 A2 z2 |!f! F4 | G2 C2 | D3 D | G2 z!p! c | Bc Bc | Bc BG | d^c dc | d^c d z | z2 z B | %51
w: wißt!|Mir|ist sehr|wohl da-|bei, ich|sei nun a- ber,|was ich sei, ist|Lieb' und Tor- heit|ei- ner- lei;|so|
"^cresc." A3 c | B3 ^c | d3!f! ^d | !fermata!^d2- !fermata!e2 |!f! c2!p! cc | B- c2 B | A2 z A | %58
w: wißt, mir|ist sehr|wohl da-|bei; _|mir ist sehr|wohl _ da-|bei, sehr|
 A- B2 =A | G2 z B | c2 z c | A2 z2 | F4 | G2 C2 | D3 D | G2 z2 | z4 | z4 | z4 | z4 | %70
w: wohl _ da-|bei, so|wißt, so|wißt!|mir|ist sehr|wohl da-|bei,|||||
!f! G2!>(! A>F!>)! | G z z2 | z!p! G c^c | d2 z2 | z ^c d=c | Bd ed | c"^cresc."e =fe | d=f gf | %78
w: ja, Vet- ter,|ja,|ich fall' euch|bei,|daß Lieb' und|Tor- heit ei- ner-|lei, und ich ein|Tor not- wen- dig|
 e!f!d cB | A3!p! G | FF FF | G2 z!f! G/F/ | EE AA | D2 z2 | z!p! D EF | GA Bc | ce dc | BA GA | %88
w: sei; ja, Vet- ter,|ja, ja,|ja, ja, ja, ja,|ja; ja, _|Vet- ter, Vet- ter,|ja;|ich sei nun|a- ber, was ich|sei, ist Lieb' und|To- heit ei- ner-|
 B2 z F | G2 z"^cresc." B | c2 z2 |!f! c2!p! cc | B- c2 B | A2 z A | A B2 =A | G2 z G | c2 z c | %97
w: lei; so|wißt, so|wißt!|mir ist sehr|wohl _ da-|bei, sehr|wohl _ da-|bei; so|wißt, so|
 A2 z2 |!f! F4 | G2 C2 | D3 D | G2 z"^cresc." B | A2 z F | G2 z!f! F | !fermata!F2- !fermata!GB | %105
w: wißt!|mir|ist sehr|wohl da-|bei; so|wißt, mir|ist sehr|wohl, _ sehr|
 A3 G | F4- | F4 | F/G/F/G/ A/B/A/B/ | cA!>(! !fermata!F2!>)! |!f! d4 | G2 C2 | D3 D | G2 z2 | %114
w: wohl da-|bei;|_|||mir|ist sehr|wohl da-|bei,|
 z!p! d e2 | z F G!f!c | d3 D | G2 z2 |] %118
w: so wißt,|mir ist sehr|wohl da-|bei!|
V:4
!p! G2 A>F | G2 z2 | [GB]2 [Ac]>[FA] | [GB]2 z2 |!>(! [Bg]2 [cf]>[ce]!>)! | [Bd].[ce] .[Bd].[Ac] | %6
 .[GB].[Gc] .[FB].[EA] | [DG]2 z (d | cB AG | FG A)(B | cd e).[Fe] | ([Gd][Ac] [GB][FA] | %12
 GA [GB])[Ac] | d2 ^cd | ed ^cB | AB (A2 | A)AAA | .[FA].[GB].[FA].[GB] | .[FA].[GB].[FA].[GB] | %19
 [FA][GB][FA][GB] | [FA][GB][FA][GB] x | [FA]2!f! [Fd][Fd] | [Ge][Ge] [Fd][E^c] | %23
 [Fd]2!p! [F^d]"^cresc."[Fd] | [Ge][Ge] [E^c][Ec] | ([Fd][Ge] [Fd][E^c]) | ([Fd][eg] [df][^ce]) | %27
 d2 z!p! (D | EF GA | Bc d)e | ([Fd][Gc] [FB][EA] | [DG][FA] [GB])F | GA Bd | B2 z d | e2 z2 | %35
!f! e2!p! ee | (^d e2) =d | c2 z c | (^c d2) =c | B2 z d | [EG]2 z [EG] | [Ec]2 z2 | [DAc]4 | %43
 [DGB]2 (3ecA | G2{/B} [FA]>G | G2 z!p! e | .d.e .d.e | .d.e x2 | .[FA].[GB] .[FA].[GB] | %49
 .[FA].[GB] [FA] z | z2 z [DG] | G2- FA | A2- G[GB] | [G-B]2 [FA]!f![Ac] | %54
 !fermata![Ac-]2 !fermata![GB]2 | e2 ee | (^d e2) =d | c3 c | (^c d2) =c | B2 z d | [EG]2 z [EG] | %61
 [Ec]2 z2 | [DAc]4 | [DGB]2 (3ecA | G2{/B} A>G | G2 z2 | G2 A>F | G2 z2 | [GB]2 [Ac]>[FA] | %69
 [GB]2 z2 | [Bg]2 [cf]>[ce] | [Bd].[ce] .[Bd].[Ac] | .[GB].[Bd] .[Ac].[GB] | [FA]2 z [GB] | %74
 [Ac][GB] [FA][Ac] | [Bd][Ac] [GB][Bd] | [ce]"^cresc."[Bd] [Ac][ce] | [d=f][ce] [Bd]2 | %78
!f! [ce]2 [ce][ce] | [ce]2 z [ce] | .[cd].[cd].[cd].[cd] | d2xd | [G^c][Gc][Gc][Gc] | %83
 [Fd]2 z D!p! | EF G[Ac] | B[Ac] [Gd][Ge] | [Fd][Gc] [FB][EA] | [DG][FA] B z | z2 z d | d2 z d | %90
 e2 z2 |!f! e2 ee | (^d e2) =d | c2 z c | (^c d2) =c | B2 z d | [EG]2 z [EG] | [Ec]2 z2 | [DAc]4 | %99
 [DGB]2 (3ecA | G2{/B} A>G | G2 z G | F2 z =c | B2 z e | (!fermata![ce]2 !fermata![Bd])[dg] | %105
 g2- fe | d4- | d3/2(3e/4d/4^c/4 d^d | [ce]4 | !fermata![ce]4 | [Fc]4 | (3Bdg (3ecA | G2{/B} A>G | %113
 G2 z!p! [GB] | [FA]2 z [ce] | [GB]2 z [Ge] | d3 (e/f/) | [Bg]2 z2 |] %118
V:5
 z4 | z4 | z4 | z4 |!f! G,2 A,>F, | G,2!p! z2 | z E DC | B,2 z2 | z DCB, | A,G, F,G, | A,B, CD | %11
 EF, G,A, | B,2 z2 | GF ED | ^C3 D | (^C4 | C)A,B,^C | .D.^C.D.C | .D.^C.D.C | D^CDC | D^CDC x | %21
 D2 B,B, | G,E, A,A, | D2 B,B, | E,E, A,A, | DG, A,A, | D!f!G, A,A,, | D,2 z2 | z D, E,F, | %29
 G,A, B,C | DE DC | B,A, G,A, | B,2 z F, |"^cresc." G,2 z B, | C2 z2 | C2 CC | (B, C2) B, | %37
 A,2 z A, | (^A, B,2) =A, | G,2 z B, | C2 z C | A,2 z2 |!f! F,4 | G,2 [C,C]2 | B,2 C2 | %45
 [G,B,]2 z C | B,C B,C | B,C B,G, | D^C DC | D^C D z | z2 z B, |"^cresc." A,3 C | B,3 ^C | D3 ^D | %54
 !fermata!^D2 !fermata!E2 |!f! C2!p! CC | (B, C2) B, | A,2 z A, | (^A, B,2) =A, | G,2 z B, | %60
 C2 z C | A,2 z2 |!f! F,4 | G,2 [C,C]2 | B,2 C2 | B,2!>(! z2!>)! |!p! G,,2 z2 | z4 | z4 | z4 | %70
!f! G,2!>(! A,>F,!>)! | G,2!p! z2 | z G, C^C | D2 z2 | z ^C D=C | B,D ED | CE =FE | D=F GF | %78
 ED CB, | A,3!p! G, | F,F, F,F, | G,2 z!f! (G,/F,/) | E,E,A,A, | D,2 z2 | z D, E,F, | G,A, B,C | %86
 DE DC | B,A, G,A, | B,2 z F, | G,2"^cresc." z B, | C2 z2 | C2!p! CC | (B, C2) B, | A,2 z A, | %94
 (^A, B,2) =A, | G,2 z B, | C2 z C | A,2 z2 |!f! F,4 | G,2 [C,C]2 | B,2 C2 | %101
 [G,B,]2"^cresc." z B, | A,2 z F, | G,2 z!f! F, | (!fermata!F,2 !fermata!G,)B, | %105
!>(! A,3!>)!!p! G, | F,4- | F,4 | z2 A,2 | !fermata![F,C]4 |!f! D4 | G,2 [C,C]2 | B,2 C2 | %113
 [G,B,]2 z2 | z!p! ^C D2 | z F, G,!f![C,C] | [D,B,]3 [D,A,] | [G,,G,]2 x2 |] %118
V:6
 x4 | x4 | x4 | x4 | x4 | x4 | x4 | x4 | x4 | x4 | x4 | x4 | x4 | BA GF | EF G2 | G3 E | GGFE | %17
 x4 | x4 | x4 | x5 | x4 | x4 | x4 | x4 | x4 | x4 | x4 | x4 | G2 GG | x4 | x4 | x4 | z D G2 | %34
 z G c2 | x4 | G2 GG | (^G A2) =G | F2 z F | (F G2) =F | x4 | x4 | x4 | x4 | x4 | G4 | G4 | %47
 G2 d([Ac]/[GB]/) | x4 | x4 | x4 | C3 E | D3 x | x4 | x4 | x4 | G3 G | (^G A2) =G | F3 F | %59
 (F G2) =F | x4 | x4 | x4 | x4 | x2 F2 | x4 | x4 | x4 | x4 | x4 | x4 | x4 | x4 | x4 | x4 | x4 | %76
 x4 | x4 | x4 | x4 | x4 | B2 z (B/A/) | x4 | x4 | x4 | x4 | x4 | x2 GF | GA B z | z D G2 | z G c2 | %91
 x4 | G3 G | (^G A2) =G | F3 F | (F G2) =F | x4 | x4 | x4 | x4 | x2 F2 | x4 | z ^C D2 | z F Gc | %104
 x4 | c3 B | A3/2(3B/4A/4^G/4 (AB) | c4 | x4 | x4 | x4 | G2 x2 | x2 F2 | x4 | x4 | x4 | G3 c | %117
 x4 |] %118
V:7
 x4 | x4 | x4 | x4 | x4 | x4 | x4 | x4 | x4 | x4 | x4 | x4 | x4 | x4 | x4 | x4 | x4 | x4 | x4 | %19
 x4 | x5 | x4 | x4 | x4 | x4 | x4 | x4 | x4 | x4 | x4 | x4 | x4 | x4 | x4 | x4 | x4 | x4 | x4 | %38
 x4 | x4 | x4 | x4 | x4 | x4 | D,4 | x4 | x4 | x4 | x4 | x4 | x4 | x4 | x4 | x4 | x4 | x4 | x4 | %57
 x4 | x4 | x4 | x4 | x4 | x4 | x4 | D,4 | G,G, D,B,, | x4 | x4 | x4 | x4 | x4 | x4 | x4 | x4 | x4 | %75
 x4 | x4 | x4 | x4 | x4 | x4 | x4 | x4 | x4 | x4 | x4 | x4 | x4 | x4 | x4 | x4 | x4 | x4 | x4 | %94
 x4 | x4 | x4 | x4 | x4 | x4 | D,4 | x4 | x4 | x4 | x4 | x4 | x4 | x4 | F,4- | x4 | x4 | x4 | D,4 | %113
 x4 | x4 | x4 | x4 | x4 |] %118

